icons/svg/shopping/motorcycle_repair.svg

<?xml version="1.0" encoding="UTF-8" standalone="no"?>
<!-- Created with Inkscape (http://www.inkscape.org/) -->

<svg
   xmlns:dc="http://purl.org/dc/elements/1.1/"
   xmlns:cc="http://creativecommons.org/ns#"
   xmlns:rdf="http://www.w3.org/1999/02/22-rdf-syntax-ns#"
   xmlns:svg="http://www.w3.org/2000/svg"
   xmlns="http://www.w3.org/2000/svg"
   xmlns:xlink="http://www.w3.org/1999/xlink"
   xmlns:sodipodi="http://sodipodi.sourceforge.net/DTD/sodipodi-0.dtd"
   xmlns:inkscape="http://www.inkscape.org/namespaces/inkscape"
   version="1.0"
   width="580"
   height="580"
   id="svg2"
   sodipodi:version="0.32"
   inkscape:version="0.91 r"
   sodipodi:docname="motorcycle_repair.svg"
   inkscape:output_extension="org.inkscape.output.svg.inkscape">
  <metadata
     id="metadata2975">
    <rdf:RDF>
      <cc:Work
         rdf:about="">
        <dc:format>image/svg+xml</dc:format>
        <dc:type
           rdf:resource="http://purl.org/dc/dcmitype/StillImage" />
        <cc:license
           rdf:resource="http://web.resource.org/cc/PublicDomain" />
        <dc:language>en</dc:language>
        <dc:title />
      </cc:Work>
    </rdf:RDF>
  </metadata>
  <sodipodi:namedview
     inkscape:window-height="1006"
     inkscape:window-width="1920"
     inkscape:pageshadow="2"
     inkscape:pageopacity="0.0"
     guidetolerance="10.0"
     gridtolerance="10.0"
     objecttolerance="10.0"
     borderopacity="1.0"
     bordercolor="#666666"
     pagecolor="#ffffff"
     id="base"
     inkscape:zoom="0.65172413"
     inkscape:cx="145.28218"
     inkscape:cy="374.813"
     inkscape:window-x="1920"
     inkscape:window-y="0"
     inkscape:current-layer="svg2"
     showgrid="false"
     inkscape:window-maximized="1"
     showguides="true"
     inkscape:guide-bbox="true" />
  <defs
     id="defs4">
    <inkscape:perspective
       sodipodi:type="inkscape:persp3d"
       inkscape:vp_x="0 : 290 : 1"
       inkscape:vp_y="6.1230318e-14 : 1000 : 0"
       inkscape:vp_z="580 : 290 : 1"
       inkscape:persp3d-origin="290 : 193.33333 : 1"
       id="perspective2441" />
    <inkscape:perspective
       id="perspective3452"
       inkscape:persp3d-origin="30 : 20 : 1"
       inkscape:vp_z="60 : 30 : 1"
       inkscape:vp_y="0 : 1000 : 0"
       inkscape:vp_x="0 : 30 : 1"
       sodipodi:type="inkscape:persp3d" />
    <symbol
       viewBox="244.5 110 489 219.9"
       id="symbol-university">
      <path
         id="path4460"
         d="M79,43l57,119c0,0,21-96,104-96s124,106,124,106l43-133l82-17L0,17L79,43z" />
      <path
         id="path4462"
         d="M94,176l-21,39"
         stroke-width="20"
         stroke="#000000"
         fill="none" />
      <path
         id="path4464"
         d="M300,19c0,10.5-22.6,19-50.5,19S199,29.5,199,19s22.6-19,50.5-19S300,8.5,300,19z" />
      <path
         id="path4466"
         d="M112,216l-16-38L64,88c0,0-9-8-4-35s16-24,16-24"
         stroke-width="20"
         stroke="#000000"
         ill="none" />
    </symbol>
    <inkscape:perspective
       id="perspective4471"
       inkscape:persp3d-origin="372.04724 : 350.78739 : 1"
       inkscape:vp_z="744.09448 : 526.18109 : 1"
       inkscape:vp_y="0 : 1000 : 0"
       inkscape:vp_x="0 : 526.18109 : 1"
       sodipodi:type="inkscape:persp3d" />
    <inkscape:perspective
       id="perspective4668"
       inkscape:persp3d-origin="6 : 4 : 1"
       inkscape:vp_z="12 : 6 : 1"
       inkscape:vp_y="0 : 1000 : 0"
       inkscape:vp_x="0 : 6 : 1"
       sodipodi:type="inkscape:persp3d" />
    <inkscape:perspective
       id="perspective3826"
       inkscape:persp3d-origin="0.5 : 0.33333333 : 1"
       inkscape:vp_z="1 : 0.5 : 1"
       inkscape:vp_y="0 : 1000 : 0"
       inkscape:vp_x="0 : 0.5 : 1"
       sodipodi:type="inkscape:persp3d" />
    <inkscape:perspective
       id="perspective3855"
       inkscape:persp3d-origin="0.5 : 0.33333333 : 1"
       inkscape:vp_z="1 : 0.5 : 1"
       inkscape:vp_y="0 : 1000 : 0"
       inkscape:vp_x="0 : 0.5 : 1"
       sodipodi:type="inkscape:persp3d" />
    <inkscape:perspective
       id="perspective3909"
       inkscape:persp3d-origin="0.5 : 0.33333333 : 1"
       inkscape:vp_z="1 : 0.5 : 1"
       inkscape:vp_y="0 : 1000 : 0"
       inkscape:vp_x="0 : 0.5 : 1"
       sodipodi:type="inkscape:persp3d" />
    <inkscape:perspective
       id="perspective3950"
       inkscape:persp3d-origin="0.5 : 0.33333333 : 1"
       inkscape:vp_z="1 : 0.5 : 1"
       inkscape:vp_y="0 : 1000 : 0"
       inkscape:vp_x="0 : 0.5 : 1"
       sodipodi:type="inkscape:persp3d" />
    <inkscape:perspective
       id="perspective3972"
       inkscape:persp3d-origin="0.5 : 0.33333333 : 1"
       inkscape:vp_z="1 : 0.5 : 1"
       inkscape:vp_y="0 : 1000 : 0"
       inkscape:vp_x="0 : 0.5 : 1"
       sodipodi:type="inkscape:persp3d" />
    <inkscape:perspective
       id="perspective3994"
       inkscape:persp3d-origin="0.5 : 0.33333333 : 1"
       inkscape:vp_z="1 : 0.5 : 1"
       inkscape:vp_y="0 : 1000 : 0"
       inkscape:vp_x="0 : 0.5 : 1"
       sodipodi:type="inkscape:persp3d" />
    <inkscape:perspective
       id="perspective4016"
       inkscape:persp3d-origin="0.5 : 0.33333333 : 1"
       inkscape:vp_z="1 : 0.5 : 1"
       inkscape:vp_y="0 : 1000 : 0"
       inkscape:vp_x="0 : 0.5 : 1"
       sodipodi:type="inkscape:persp3d" />
    <inkscape:perspective
       id="perspective4837"
       inkscape:persp3d-origin="0.5 : 0.33333333 : 1"
       inkscape:vp_z="1 : 0.5 : 1"
       inkscape:vp_y="0 : 1000 : 0"
       inkscape:vp_x="0 : 0.5 : 1"
       sodipodi:type="inkscape:persp3d" />
    <inkscape:perspective
       id="perspective4971"
       inkscape:persp3d-origin="0.5 : 0.33333333 : 1"
       inkscape:vp_z="1 : 0.5 : 1"
       inkscape:vp_y="0 : 1000 : 0"
       inkscape:vp_x="0 : 0.5 : 1"
       sodipodi:type="inkscape:persp3d" />
    <inkscape:perspective
       id="perspective6216"
       inkscape:persp3d-origin="0.5 : 0.33333333 : 1"
       inkscape:vp_z="1 : 0.5 : 1"
       inkscape:vp_y="0 : 1000 : 0"
       inkscape:vp_x="0 : 0.5 : 1"
       sodipodi:type="inkscape:persp3d" />
    <inkscape:perspective
       id="perspective6764"
       inkscape:persp3d-origin="0.5 : 0.33333333 : 1"
       inkscape:vp_z="1 : 0.5 : 1"
       inkscape:vp_y="0 : 1000 : 0"
       inkscape:vp_x="0 : 0.5 : 1"
       sodipodi:type="inkscape:persp3d" />
    <inkscape:perspective
       id="perspective6817"
       inkscape:persp3d-origin="0.5 : 0.33333333 : 1"
       inkscape:vp_z="1 : 0.5 : 1"
       inkscape:vp_y="0 : 1000 : 0"
       inkscape:vp_x="0 : 0.5 : 1"
       sodipodi:type="inkscape:persp3d" />
    <radialGradient
       gradientUnits="userSpaceOnUse"
       gradientTransform="scale(0.79354273,1.2601716)"
       xlink:href="#linearGradient829"
       id="radialGradient874"
       cx="180.2453"
       cy="198.41902"
       r="101.58017"
       fx="180.2453"
       fy="198.41902" />
    <linearGradient
       id="linearGradient829">
      <stop
         style="stop-color: rgb(255, 255, 255); stop-opacity: 0.341667;"
         offset="0.0000000"
         id="stop830" />
      <stop
         style="stop-color: rgb(255, 255, 255); stop-opacity: 0;"
         offset="1.0000000"
         id="stop831" />
    </linearGradient>
    <radialGradient
       gradientUnits="userSpaceOnUse"
       gradientTransform="scale(1.007004,0.99304475)"
       xlink:href="#linearGradient829"
       id="radialGradient832"
       cx="360.85146"
       cy="167.47372"
       r="46.394721"
       fx="360.85146"
       fy="167.47372" />
    <linearGradient
       id="linearGradient6826">
      <stop
         style="stop-color: rgb(255, 255, 255); stop-opacity: 0.341667;"
         offset="0.0000000"
         id="stop6828" />
      <stop
         style="stop-color: rgb(255, 255, 255); stop-opacity: 0;"
         offset="1.0000000"
         id="stop6830" />
    </linearGradient>
    <linearGradient
       gradientUnits="userSpaceOnUse"
       gradientTransform="scale(0.74491357,1.3424376)"
       xlink:href="#linearGradient855"
       id="linearGradient850"
       x1="465.29425"
       y1="248.24467"
       x2="463.27056"
       y2="405.7687"
       spreadMethod="pad" />
    <linearGradient
       id="linearGradient855">
      <stop
         style="stop-color: rgb(255, 255, 255); stop-opacity: 0;"
         offset="0.0000000"
         id="stop856" />
      <stop
         style="stop-color: rgb(255, 166, 23); stop-opacity: 0.733333;"
         offset="1.0000000"
         id="stop857" />
    </linearGradient>
    <linearGradient
       gradientUnits="userSpaceOnUse"
       gradientTransform="scale(1.4586159,0.68558144)"
       xlink:href="#linearGradient855"
       id="linearGradient854"
       x1="157.80581"
       y1="120.96176"
       x2="155.40575"
       y2="231.63491" />
    <linearGradient
       id="linearGradient6837">
      <stop
         style="stop-color: rgb(255, 255, 255); stop-opacity: 0;"
         offset="0.0000000"
         id="stop6839" />
      <stop
         style="stop-color: rgb(255, 166, 23); stop-opacity: 0.733333;"
         offset="1.0000000"
         id="stop6841" />
    </linearGradient>
    <inkscape:perspective
       id="perspective6928"
       inkscape:persp3d-origin="0.5 : 0.33333333 : 1"
       inkscape:vp_z="1 : 0.5 : 1"
       inkscape:vp_y="0 : 1000 : 0"
       inkscape:vp_x="0 : 0.5 : 1"
       sodipodi:type="inkscape:persp3d" />
    <inkscape:perspective
       id="perspective10781"
       inkscape:persp3d-origin="0.5 : 0.33333333 : 1"
       inkscape:vp_z="1 : 0.5 : 1"
       inkscape:vp_y="0 : 1000 : 0"
       inkscape:vp_x="0 : 0.5 : 1"
       sodipodi:type="inkscape:persp3d" />
    <inkscape:perspective
       id="perspective10806"
       inkscape:persp3d-origin="0.5 : 0.33333333 : 1"
       inkscape:vp_z="1 : 0.5 : 1"
       inkscape:vp_y="0 : 1000 : 0"
       inkscape:vp_x="0 : 0.5 : 1"
       sodipodi:type="inkscape:persp3d" />
    <inkscape:perspective
       id="perspective10878"
       inkscape:persp3d-origin="0.5 : 0.33333333 : 1"
       inkscape:vp_z="1 : 0.5 : 1"
       inkscape:vp_y="0 : 1000 : 0"
       inkscape:vp_x="0 : 0.5 : 1"
       sodipodi:type="inkscape:persp3d" />
    <inkscape:perspective
       id="perspective10919"
       inkscape:persp3d-origin="0.5 : 0.33333333 : 1"
       inkscape:vp_z="1 : 0.5 : 1"
       inkscape:vp_y="0 : 1000 : 0"
       inkscape:vp_x="0 : 0.5 : 1"
       sodipodi:type="inkscape:persp3d" />
    <clipPath
       id="clipoutline2"
       clipPathUnits="userSpaceOnUse">
      <path
         inkscape:connector-curvature="0"
         d="m 55.8,12 0.76,0.16 c 8.84,-2.94 28.68,8.64 24.26,18.96 -1.12,1.62 -0.93,4.5 0.42,6.31 L 56.43,62.25 c -1.39,-1.39 -4.48,-1.36 -5.9,0 L 9.5,101.63 c -3.74,3.59 -0.8,6.64 0.78,8.25 l 7.36,7.36 c 1.61,1.6 5.86,3.76 8.88,0.56 L 65.24,76.99 c 1.35,-1.42 1.36,-4.47 0,-5.87 0,0 0.01,-0.02 0,-0.02 L 90.15,46.2 c 2.63,2.37 5.113827,2.574854 7.47,1.93 4.55057,-1.245432 7.08725,3.206643 9.81,6.46 l -1.23,1.21 c -1.82,1.84 -1.65,4.94 0.39,6.98 2.04,2.04 5.15,2.21 6.97,0.39 l 8.14,-8.13 c 1.82,-1.84 1.65,-4.94 -0.4,-6.97 -1.84,-1.85 -4.51,-2.09 -6.37,-0.77 -5.58,-6.26 -2.65,-7.2 -10.01,-15.35 L 91.13,17.86 C 81.2,8.12 68.3,8.13 55.8,12 z"
         id="outline2" />
    </clipPath>
    <clipPath
       id="clipoutline1"
       clipPathUnits="userSpaceOnUse">
      <path
         inkscape:connector-curvature="0"
         d="m 22.42,17.2 12.96,12.95 -2.5,8.78 -8.78,2.5 -12.96,-12.96 -5.86,5.86 14.89,21.46 17.56,-3.34 61.63,65.62 c 9.44,9.51 22.17,-4.75 13.34,-12.87 L 46.85,42.92 50.86,25.16 28.72,10.89 22.42,17.2 Z m 81.06,91.97 c 1.68,-1.68 4.4,-1.68 6.08,0 1.68,1.68 1.68,4.4 0,6.08 -1.68,1.67 -4.4,1.67 -6.08,0 -1.68,-1.68 -1.68,-4.4 0,-6.08 z"
         id="outline1" />
    </clipPath>
  </defs>
  <g
     id="g1327">
    <path
       d="M 66.275,1.768 C 24.94,1.768 1.704,23.139 1.704,66.804 L 1.704,516.927 C 1.704,557.771 22.599,579.156 63.896,579.156 L 515.92,579.156 C 557.227,579.156 578.149,558.841 578.149,516.927 L 578.149,66.804 C 578.149,24.203 557.227,1.768 514.628,1.768 C 514.624,1.768 66.133,1.625 66.275,1.768 z "
       style="fill:#111;stroke:#eee;stroke-width:3.40799999"
       id="path1329" />
  </g>
  <g
     id="g3338"
     transform="matrix(1.3973279,-0.2437849,0.2437849,1.3973279,-185.07402,-56.183307)" />
  <g
     id="spanner"
     transform="matrix(2.3162601,-2.2455649,2.2341063,2.3281401,-11.801658,116.19907)"
     style="fill:#ffffff;stroke:#ffffff;stroke-width:2.00957489;stroke-linecap:round;stroke-linejoin:round;stroke-miterlimit:4;stroke-dasharray:none;stroke-opacity:1">
    <use
       height="580"
       width="580"
       y="0"
       x="0"
       xlink:href="#outline1"
       class="outline-big"
       id="use4649"
       style="fill:#ffffff;stroke:#ffffff;stroke-width:2.00957489;stroke-linecap:round;stroke-linejoin:round;stroke-miterlimit:4;stroke-dasharray:none;stroke-opacity:1" />
    <use
       height="580"
       width="580"
       y="0"
       x="0"
       xlink:href="#outline1"
       class="outline-small"
       id="use4651"
       style="fill:#ffffff;stroke:#ffffff;stroke-width:2.00957489;stroke-linecap:round;stroke-linejoin:round;stroke-miterlimit:4;stroke-dasharray:none;stroke-opacity:1" />
    <use
       height="580"
       width="580"
       y="0"
       x="0"
       xlink:href="#outline1"
       class="aluminium4"
       id="use4653"
       style="fill:#ffffff;stroke:#ffffff;stroke-width:2.00957489;stroke-linecap:round;stroke-linejoin:round;stroke-miterlimit:4;stroke-dasharray:none;stroke-opacity:1" />
    <use
       height="580"
       width="580"
       y="0"
       x="0"
       class="stroke-highlight"
       xlink:href="#outline1"
       clip-path="url(#clipoutline1)"
       style="fill:#ffffff;stroke:#ffffff;stroke-width:2.00957489;stroke-linecap:round;stroke-linejoin:round;stroke-miterlimit:4;stroke-dasharray:none;stroke-opacity:1"
       id="use4655" />
    <path
       inkscape:connector-curvature="0"
       class="high-specularity"
       style="fill:#ffffff;stroke:#ffffff;stroke-width:2.00957489;stroke-linecap:round;stroke-linejoin:round;stroke-miterlimit:4;stroke-dasharray:none;stroke-opacity:1"
       d="M 24.33,15.4 37.78,28.78 34.45,40.47 23.5,43.74 9.9319417,30 5.2,34.54 19.4,54.48 38.3,50.34 100.8,116.7 c 7.5,8.3 20.2,-2.67 11.14,-11.6 L 45.04,42 48.9,24.83 28.94,10.8 24.33,15.4 Z m 79.97,93.3 c 1.67,-1.67 4.63,-2 6.3,-0.3 1.7,1.67 3.06,4.63 0.65,7.84 -2,2 -5.2,1.92 -7.2,-0.24 -1.68,-1.68 -1.45,-5.6 0.25,-7.3 z"
       id="path4657" />
    <path
       inkscape:connector-curvature="0"
       class="specularity"
       style="fill:#ffffff;stroke:#ffffff;stroke-width:2.00957489;stroke-linecap:round;stroke-linejoin:round;stroke-miterlimit:4;stroke-dasharray:none;stroke-opacity:1"
       d="M 24.2,15.42 47.67,39.07 50.89,25.2 28.79,10.8 24.2,15.42 Z"
       id="path4659" />
  </g>
  <path
     inkscape:connector-curvature="0"
     style="color:#000000;line-height:normal;font-family:'Bitstream Vera Sans';-inkscape-font-specification:'Bitstream Vera Sans';text-indent:0;text-align:start;text-transform:none;block-progression:tb;overflow:visible;fill:#ffffff;fill-opacity:1;stroke:none;enable-background:accumulate"
     d="m 357.78033,225.90047 c 0,0 -31.54744,-0.67778 -53.61109,21.38585 a 9.5289781,9.5289781 0 1 0 13.47601,13.47601 c 12.29149,-12.29153 27.3579,-14.57706 34.27594,-15.23375 1.90228,4.04074 4.04339,8.49865 4.98026,13.18305 a 9.4225566,9.4225566 0 0 0 0.58591,2.0507 c -0.68368,4.28926 -2.87258,10.6264 -7.32391,15.81966 -3.74985,3.74985 -7.38252,5.56618 -11.13236,5.56618 -57.18515,0 -68.49328,27.24498 -74.11806,41.3069 -0.93746,1.87493 -1.75774,3.69125 -1.75774,5.56618 -29.99876,0 -52.49784,-8.43716 -56.24769,-14.06193 -13.12446,-22.49907 -23.49513,-23.43654 -64.74344,-23.43654 -64.684855,0 -74.059469,31.99089 -74.996932,35.74073 -0.937461,2.81238 -0.117183,5.39041 1.757741,8.20279 0.937462,0.93746 12.362774,12.30419 34.861851,12.30419 l 4.68731,0 c 13.12447,-5.62478 27.18639,-9.37463 42.18578,-9.37463 57.18516,0 103.12077,45.93562 103.12077,103.12077 0,7.4997 -1.05464,15.05798 -2.92956,22.55768 16.8743,4.6873 35.79931,5.56618 44.23646,5.56618 l 1.75774,0 c 16.87431,0 41.24831,-4.62872 51.56038,-14.9408 4.68731,-4.6873 5.56619,-9.37462 5.56619,-14.06192 -8.16901,-56.44044 20.05418,-82.04439 33.10411,-90.81659 3.72466,8.51515 7.52965,17.08373 11.71827,25.48724 -19.49156,15.01972 -31.63933,39.22835 -31.63933,65.32935 0,46.87308 37.49847,84.37154 84.37154,84.37154 46.87308,0 84.37154,-37.49846 84.37154,-84.37154 0,-46.87308 -37.49846,-83.49267 -84.37154,-83.49267 -13.12446,0 -25.37005,2.87097 -36.6196,8.49574 5.62478,11.24954 12.18701,22.49908 18.74924,32.81115 5.62477,-1.87492 11.30813,-3.80844 17.87036,-3.80844 26.24893,0 46.87308,20.62417 46.87308,46.87308 0,26.24893 -20.62415,46.87308 -46.87308,46.87308 -26.24892,0 -46.87307,-20.62415 -46.87307,-46.87308 0,-13.12445 4.74589,-24.37399 13.18305,-32.81115 -6.45361,-10.14136 -12.89434,-21.14932 -18.45627,-33.10411 4.62496,-3.668 10.02397,-7.20917 15.52669,-9.96053 -8.43714,-16.87431 -16.93289,-34.62748 -22.55766,-52.43926 -0.3344,-0.83621 -0.66916,-1.6429 -1.17183,-2.34365 -7.54063,-24.73407 -14.83663,-55.26467 -15.52671,-55.95474 -0.10433,-0.52216 -0.39382,-0.9908 -0.58591,-1.46478 -2.63733,-11.4644 -9.08166,-22.55767 -9.08166,-22.55767 a 9.3755532,9.3755532 0 0 0 -8.20278,-4.98027 z m 60.05613,182.80501 c 11.24954,18.74924 24.43259,35.50636 36.61959,48.63082 1.87492,1.87493 4.57013,2.92957 6.44505,2.92957 1.87492,0 4.57013,-1.05464 6.44505,-2.92957 3.74984,-3.74985 3.74984,-9.14024 0,-12.89009 -11.24955,-12.187 -23.31937,-28.18245 -34.5689,-45.99422 -5.62477,2.81239 -10.25349,5.56619 -14.94079,10.25349 z m 1.75774,-145.30654 c -7.4997,0 -14.82362,1.05464 -21.38584,2.92957 5.62477,20.62415 12.89009,47.57617 17.5774,59.76317 0,0.93746 1.17183,1.99211 1.17183,2.92957 l 2.63661,0 c 12.187,0 19.86246,-2.92957 25.48724,-7.61688 6.56222,-6.56222 6.44504,-15.93685 6.44504,-23.43654 l 0,-1.75774 0,-1.75773 c 0,-7.4997 0.11718,-16.87432 -6.44504,-23.43654 -5.62478,-4.68731 -13.30024,-7.61688 -25.48724,-7.61688 z M 151.53878,357.1451 c -46.87309,0 -84.371552,37.49845 -84.371552,84.37153 0,46.87308 37.498462,84.37155 84.371552,84.37155 43.12322,0 78.80536,-32.81115 83.49267,-74.99692 l -37.49846,0 c -4.68732,21.56161 -23.49514,37.49845 -45.99421,37.49845 -26.24893,0 -46.87309,-20.62415 -46.87309,-46.87308 0,-26.24891 20.62416,-46.87308 46.87309,-46.87308 22.49907,0 41.30689,15.93685 45.99421,37.49847 l 37.49846,0 C 230.34414,389.95625 194.662,357.1451 151.53878,357.1451 Z m 45.99421,74.99692 -19.33515,0 c -3.72305,-11.10338 -14.03289,-18.74923 -26.65906,-18.74923 -15.93685,0 -28.12385,12.18701 -28.12385,28.12384 0,15.93685 12.187,28.12386 28.12385,28.12386 12.62617,0 22.93601,-7.64585 26.65906,-18.74923 l 19.33515,0 c 0.93745,-2.81239 0.87886,-6.56224 0.87886,-9.37463 0,-2.81237 0.0581,-6.56222 -0.87886,-9.37461 z"
     overflow="visible"
     id="path4" />
</svg>

<svg width="580" height="580" viewBox="0 0 580 580" fill="none" xmlns="http://www.w3.org/2000/svg">
<g clip-path="url(#clip0)">
<path d="M66.2751 1.76863C24.9401 1.76863 1.7041 23.1396 1.7041 66.8046V516.928C1.7041 557.772 22.5991 579.157 63.8961 579.157H515.92C557.227 579.157 578.149 558.842 578.149 516.928V66.8046C578.149 24.2036 557.227 1.76863 514.628 1.76863C514.624 1.76863 66.1331 1.62563 66.2751 1.76863Z" fill="#111111" stroke="#EEEEEE" stroke-width="3.408"/>
<path d="M78.958 97.4178L140.004 98.3655L158.408 133.059L140.35 165.261L78.2263 163.74L77.4088 184.936L154.848 199.472L189.376 147.392L482.397 161.54C518.312 164.022 523.221 109.963 482.285 109.518L186.355 112.841L156.936 64.1986L79.3591 76.3563L78.958 97.4178ZM472.631 135.055C472.769 127.417 478.888 120.002 486.554 120.21C494.222 120.28 503.985 124.118 505.575 137.003C505.41 146.15 497.82 153.15 488.361 152.612C480.717 152.474 472.492 142.831 472.631 135.055V135.055Z" fill="white" stroke="white" stroke-width="6.48366" stroke-linecap="round" stroke-linejoin="round"/>
<path d="M78.7015 97.756L185.901 100.113L162.372 60.5911L79.0115 76.6929L78.7015 97.756Z" fill="white" stroke="white" stroke-width="6.48366" stroke-linecap="round" stroke-linejoin="round"/>
<path d="M357.78 225.901C357.78 225.901 326.233 225.223 304.169 247.287C303.284 248.171 302.582 249.222 302.103 250.378C301.624 251.534 301.378 252.773 301.378 254.025C301.378 255.276 301.624 256.515 302.103 257.672C302.582 258.828 303.284 259.878 304.169 260.763C305.054 261.648 306.104 262.35 307.26 262.829C308.417 263.308 309.656 263.554 310.907 263.554C312.159 263.554 313.398 263.308 314.554 262.829C315.71 262.35 316.761 261.648 317.645 260.763C329.937 248.471 345.003 246.186 351.921 245.529C353.824 249.57 355.965 254.027 356.902 258.712C357.019 259.415 357.215 260.103 357.487 260.763C356.804 265.052 354.615 271.389 350.164 276.582C346.414 280.332 342.781 282.148 339.031 282.148C281.846 282.148 270.538 309.393 264.913 323.455C263.976 325.33 263.155 327.147 263.155 329.021C233.157 329.021 210.658 320.584 206.908 314.96C193.783 292.46 183.413 291.523 142.164 291.523C77.4794 291.523 68.1048 323.514 67.1673 327.264C66.2299 330.076 67.0502 332.654 68.9251 335.467C69.8626 336.404 81.2879 347.771 103.787 347.771H108.474C121.599 342.146 135.661 338.396 150.66 338.396C207.845 338.396 253.781 384.332 253.781 441.517C253.781 449.017 252.726 456.575 250.851 464.075C267.726 468.762 286.651 469.641 295.088 469.641H296.845C313.72 469.641 338.094 465.012 348.406 454.7C353.093 450.013 353.972 445.325 353.972 440.638C345.803 384.198 374.026 358.594 387.076 349.821C390.801 358.337 394.606 366.905 398.794 375.309C379.303 390.328 367.155 414.537 367.155 440.638C367.155 487.511 404.654 525.01 451.527 525.01C498.4 525.01 535.898 487.511 535.898 440.638C535.898 393.765 498.4 357.145 451.527 357.145C438.402 357.145 426.157 360.016 414.907 365.641C420.532 376.891 427.094 388.14 433.656 398.452C439.281 396.577 444.964 394.644 451.527 394.644C477.776 394.644 498.4 415.268 498.4 441.517C498.4 467.766 477.776 488.39 451.527 488.39C425.278 488.39 404.654 467.766 404.654 441.517C404.654 428.392 409.399 417.143 417.837 408.706C411.383 398.564 404.942 387.556 399.38 375.602C404.005 371.934 409.404 368.392 414.907 365.641C406.47 348.767 397.974 331.014 392.349 313.202C392.015 312.366 391.68 311.559 391.178 310.858C383.637 286.124 376.341 255.593 375.651 254.903C375.546 254.381 375.257 253.913 375.065 253.439C372.428 241.974 365.983 230.881 365.983 230.881C365.191 229.389 364.011 228.138 362.567 227.262C361.123 226.385 359.47 225.915 357.78 225.901V225.901ZM417.837 408.706C429.086 427.455 442.269 444.212 454.456 457.337C456.331 459.211 459.026 460.266 460.901 460.266C462.776 460.266 465.471 459.211 467.346 457.337C471.096 453.587 471.096 448.196 467.346 444.446C456.097 432.259 444.027 416.264 432.777 398.452C427.153 401.265 422.524 404.018 417.837 408.706V408.706ZM419.594 263.399C412.095 263.399 404.771 264.454 398.208 266.329C403.833 286.953 411.099 313.905 415.786 326.092C415.786 327.029 416.958 328.084 416.958 329.021H419.594C431.781 329.021 439.457 326.092 445.082 321.405C451.644 314.842 451.527 305.468 451.527 297.968V296.21V294.453C451.527 286.953 451.644 277.578 445.082 271.016C439.457 266.329 431.781 263.399 419.594 263.399V263.399ZM151.539 357.145C104.666 357.145 67.1673 394.644 67.1673 441.517C67.1673 488.39 104.666 525.888 151.539 525.888C194.662 525.888 230.344 493.077 235.032 450.892H197.533C192.846 472.453 174.038 488.39 151.539 488.39C125.29 488.39 104.666 467.766 104.666 441.517C104.666 415.268 125.29 394.644 151.539 394.644C174.038 394.644 192.846 410.581 197.533 432.142H235.032C230.344 389.957 194.662 357.145 151.539 357.145ZM197.533 432.142H178.198C174.475 421.039 164.165 413.393 151.539 413.393C135.602 413.393 123.415 425.58 123.415 441.517C123.415 457.454 135.602 469.641 151.539 469.641C164.165 469.641 174.475 461.995 178.198 450.892H197.533C198.471 448.079 198.412 444.329 198.412 441.517C198.412 438.705 198.47 434.955 197.533 432.142V432.142Z" fill="white"/>
</g>
<defs>
<clipPath id="clip0">
<path d="M0 0H580V580H0V0Z" fill="white"/>
</clipPath>
</defs>
</svg>
